!!!COM: Schiørring, Niels
!!!CDT: 1743-1798
!!!OPR@@DA: Choral-Bog
!!!ONM: 19
!!!OTL@@DA: Fader vor udi Himmerig
**kern	**fb	**kern	**kern	**kern	**kern	**kern	**kern	**kern
*part6	*part6	*part6	*part5	*part5	*part4	*part3	*part2	*part1
*staff8	*	*staff7	*staff6	*staff5	*staff4	*staff3	*staff2	*staff1
*clefF4	*	*clefC1	*clefF4	*clefC1	*clefF4	*clefC4	*clefC3	*clefC1
*	*	*	*	*	*	*Trd0c0	*	*
*k[]	*	*k[]	*k[]	*k[]	*k[]	*k[]	*k[]	*k[]
*M4/4	*	*M4/4	*M4/4	*M4/4	*M4/4	*M4/4	*M4/4	*M4/4
*met(c)	*	*met(c)	*met(c)	*met(c)	*met(c)	*met(c)	*met(c)	*met(c)
*MM180	*	*MM180	*MM180	*MM180	*MM180	*MM180	*MM180	*MM180
*	*	*	*^	*^	*	*	*	*
2D	.	2a	2d	2D	2a	2f	2D	2a	2f	2a
=1	=1	=1	=1	=1	=1	=1	=1	=1	=1	=1
2C#X	6	2a	2A	2C#X	2a	2e	2C#X	2a	2e	2a
2D	.	2f	2A	2D	2f	[2f	2D	2a	[2f	2f
=2	=2	=2	=2	=2	=2	=2	=2	=2	=2	=2
2BB	5	2g	2ryy@	2BB	2d	2f]	2BB	2dd	2f]	2g
2C#X	6	2a	2A	2C#X	2a	2e	2C#X	2a	2e	2a
=3	=3	=3	=3	=3	=3	=3	=3	=3	=3	=3
2D	.	2f	2.A	2D	2f	2.d	2D	2a	[2d	2f
2AA	4	2e	.	2AA	2e	.	2AA	(4a	(4d]	2e
=4	=4	=4	=4	=4	=4	=4	=4	=4	=4	=4
2D	#	2d	2F	2D	2d	2d	2D	2f	2d	2d
2F	.	2a	2F	2F	2a	2cni	2F	2f	2cni	2a
=5	=5	=5	=5	=5	=5	=5	=5	=5	=5	=5
4AA	6	2a	2F	4AA	2a	2c	(4AA	2f	2c	2a
4BB-X	.	.	.	4BB-X	.	.	4BB-X)	.	.	.
4C	.	2g	4E	4C	2g	2c	(4C	(4e	2c	2g
4D	.	.	4F	4D	.	.	4D)	4f)	.	.
=6	=6	=6	=6	=6	=6	=6	=6	=6	=6	=6
4E	6	2cc	4G	4E	2cc	2c	(4E	(4g	2c	2cc
4C	.	.	4E	4C	.	.	4C)	4e)	.	.
4F	.	2a	2A	4F	2a	2c	(4F	2a	2c	2a
4E	.	.	.	4E	.	.	4E)	.	.	.
=7	=7	=7	=7	=7	=7	=7	=7	=7	=7	=7
4D	.	2f	2A	4D	2f	[2f	(4D	2a	[2f	2f
4C	.	.	.	4C	.	.	4C)	.	.	.
4BB-X	6 5	2g	4ryy@	4BB-X	4d	4f]	(4BB-X	(4dd	(4f]	2g
4C	.	.	4ryy@	4C	4c	4e	4C)	4cc)	4e)	.
=8	=8	=8	=8	=8	=8	=8	=8	=8	=8	=8
*	*	*	*	*	*	*	*^	*	*	*
2FF	.	2a	1ryy	2FF	2c	2f	2F	2FF	2cc	2f	2a
2AA	.	2a	.	2AA	2c	2e	2A	2AA	2cc	2e	2a
*	*	*	*	*	*	*	*v	*v	*	*	*
=9	=9	=9	=9	=9	=9	=9	=9	=9	=9	=9
4A	.	2cc	1ryy	4A	2e	2a	(4A	2ee	2e	2cc
4G	.	.	.	4G	.	.	4G)	.	.	.
4F	6	2dd	.	4F	2f	2a	(4F	2dd	2a	2dd
4E	.	.	.	4E	.	.	4E)	.	.	.
=10	=10	=10	=10	=10	=10	=10	=10	=10	=10	=10
4D	.	2ff	1ryy	4D	4a	2dd	(4D	2dd	(4a	2ff
4BB	5	.	.	4BB	4g	.	4BB)	.	4g)	.
4C#X	5	2ee	.	4C#X	4a	2g	(4C#X	(4ee	2g	2ee
4AA	7 #	.	.	4AA	4cc#X	.	4AA)	4cc#X)	.	.
=11	=11	=11	=11	=11	=11	=11	=11	=11	=11	=11
4BB-X	.	2dd	1ryy	4BB-X	4f	4dd	(4BB-X	(4dd	(4f	2dd
4GG	6 5 -	.	.	4GG	4e	4b-X	4GG)	4b-X)	4e)	.
2AA	#	2cc#X	.	2AA	2e	2a	2AA	2a	2e	2cc#X
=12	=12	=12	=12	=12	=12	=12	=12	=12	=12	=12
2D	.	2dd	1ryy	2D	2f	2a	2D	2a	2f	2dd
2G	8	2dd	.	2G	4g	[2bni	2G	[2bni	(4g	2dd
=13	=13	=13	=13	=13	=13	=13	=13	=13	=13	=13
2C	7	2ee	1ryy	2C	2e	4b]	2C	(4b]	(4e	2ee
*	*	*	*	*	*v	*v	*	*	*	*
2BB	7	2dd	.	2BB	4f	2BB	2dd	.	2dd
=14	=14	=14	=14	=14	=14	=14	=14	=14	=14
*	*	*	*	*	*^	*	*	*	*
4AA	6	2cc	1ryy	4AA	2e	2.a	(4AA	2ee	[2a	2cc
4C	.	.	.	4C	.	.	4C)	.	.	.
4D	6 5	2b	.	4D	4f	.	(4D	(4ff	(4a]	2b
4E	#	.	.	4E	4e	4g#X	4E)	4ee)	4g#X)	.
=15	=15	=15	=15	=15	=15	=15	=15	=15	=15	=15
4F	.	2a	4c	4F	2a	4a	(4F	(4cc	(4a	2a
4D	6 5	.	4B	4D	.	4f	4D)	4b)	4f)	.
2E	#	2g#X	2B	2E	2g#X	2e	2E	2b	2e	2g#X
=16	=16	=16	=16	=16	=16	=16	=16	=16	=16	=16
*	*	*	*	*	*	*^	*	*	*	*
2AA	.	2a	2A	2AA	2a	2c	2e/	2AA	2cc	2e	2a
*	*	*	*	*	*	*v	*v	*	*	*	*
2BB	-r5	2dd	2Gni	2BB	2dd	2f	2BB	2ff	2g	2dd
=17	=17	=17	=17	=17	=17	=17	=17	=17	=17	=17
2C	.	2cc	2G	2C	2cc	2e	2C	2ee	2g	2cc
2D	6	2b	2d	2D	2b	2f	2D	2dd	2f	2b
=18	=18	=18	=18	=18	=18	=18	=18	=18	=18	=18
4E	6	2cc	2c	4E	2cc	4g	(4E	2cc	2g	2cc
4C	.	.	.	4C	.	4e	4C)	.	.	.
4F	.	2a	4ryy@	4F	2c	2c	(4F	2cc	2f	2a
4E	.	.	4ryy@	4E	.	.	4E)	.	.	.
=19	=19	=19	=19	=19	=19	=19	=19	=19	=19	=19
4D	.	2a	1ryy	4D	2.d	2.f	(4D	[2dd	[2f	2a
4C	.	.	.	4C	.	.	4C)	.	.	.
4BB-X	6 5	2g	.	4BB-X	.	.	(4BB-X	(4dd]	(4f]	2g
4C	.	.	.	4C	4c	4e	4C)	4cc)	4e)	.
=20	=20	=20	=20	=20	=20	=20	=20	=20	=20	=20
2F	.	2f	2A	2F	2f	2c	2F	2a	2f	2f
2F#X	5	2a	2c	2F#X	2a	2d	2F#X	2cc	2d	2a
=21	=21	=21	=21	=21	=21	=21	=21	=21	=21	=21
2G	-	2b-X	4B-X	2G	2b-X	2d	2G	(4b-X	2d	2b-X
.	.	.	4G	.	.	.	.	4g)	.	.
2C#X	6	2a	4E	2C#X	2a	2e	2C#X	(4e	2e	2a
.	.	.	4A	.	.	.	.	4a)	.	.
=22	=22	=22	=22	=22	=22	=22	=22	=22	=22	=22
2D	.	2f	2A	2D	2f	2d	2D	2a	2d	2f
2GG	-	2g	2ryy@	2GG	2B-X	[2d	2GG	2b-X	[2d	2g
=23	=23	=23	=23	=23	=23	=23	=23	=23	=23	=23
2AA	6 4	2f	2A	1AA	2f	2d]	2AA	2a	2d]	2f
2AA	5 #	2e	2G	.	2e	2c#X	2AA	2g	2c#X	2e
=24	=24	=24	=24	=24	=24	=24	=24	=24	=24	=24
2D	.	2d	2F	2D	2d	2A	2D	2f	2d	2d
*	*	*	*v	*v	*	*	*	*	*	*
*	*	*	*	*v	*v	*	*	*	*
==	==	==	==	==	==	==	==	==
*-	*-	*-	*-	*-	*-	*-	*-	*-
!!!system-decoration: {(s1,s2,s3,s4)}{(s5,s6)}{(s7,s8)}
!!!RDF**kern: i = editorial accidental
!!!AGN: chorale
!!!EED: Derek Remeš
!!!EED2: Victor Phan
!!!END: 2023/11/28
!!!ENC: Wolfgang Drescher
!!!EEV: 2023/11/28
!!!title: @{ONM}. @{OTL}